X:1
T:Land of Pleasure
T:Land of Pleasure
T:William Batchelder Bradbury, 1862
T:Alexander Campbell, 1807
T:Public Domain Courtesy of the Cyber Hymnal™
T:Public Domain Courtesy of the Cyber Hymnal™
C:William Batchelder Bradbury, 1862
Z:Public Domain
Z:Courtesy of the Cyber Hymnal™
%%score ( 1 2 ) ( 3 4 )
L:1/8
Q:1/4=110
M:4/4
K:A
V:1 treble 
V:2 treble 
V:3 bass 
V:4 bass 
V:1
 (cd) | [Ee]3 [Ee] ([Fd][Ec]) ([DB][CA]) | [DB]2 [DF]4 [FB]2 | [EA]2 [EA]2 [EB]2 [EB]2 | %4
w: 1.~There *|is a land * of *|plea- sure, Where|streams of joy for|
w: 2.~My *|way is full * of *|dan- ger, But|’tis the path that|
w: 3.~I’m *|on the way * to *|Zi- on, Still|guard- ed by my|
w: 4.~The *|vale of tears * sur- *|rounds me, And|Jor- dan’s cur- rent|
w: 5.~This *|stream shall not * af- *|fright me, Al-|though it take me|
w: 6.~Come, *|then, thou king * of *|ter- rors, Thy|fa- tal dart may|
w: 7.~Soon *|the arch- an- * gel’s *|trum- pet Shall|shake the globe from|
 [Ec]2 [Ae]2 !fermata![Ge]2 (cd) | [Ae]3 [Ae] ([Fd][Ec]) ([DB][CA]) | [DB]2 [DF]4 [FB]2 | %7
w: ev- er roll, ’Tis *|there I have * my *|trea- sure, And|
w: leads to God; And *|like a faith- * ful *|sol- dier, I’ll|
w: Sav- ior’s hand; O, *|come a- long, * dear *|sin- ners, And|
w: rolls be- fore; O! *|how I stand * and *|trem- ble, To|
w: to the grave; If *|Je- sus stand * be- *|side me, I’ll|
w: lay me low; But *|soon I’ll reach * those *|re- gions Where|
w: pole to pole. And *|all the wheels * of *|na- ture Shall|
 [EA]2 [EA]2 [Ec][EB][EA][EG] | [EA]6 (GA) | [EB]2 [EB]2 (cB) (AB) | [Ec]2 [Ee]4 (GA) | %11
w: there I long to rest my|soul. Long *|dark- ness dwelt * a- *|round me, With *|
w: march a- long the heaven- ly|road; Now *|I must gird * my *|sword on, My *|
w: view Em- man- uel’s hap- py|land: To *|all that stay * be- *|hind me, I *|
w: hear the dis- mal wa- ters|roar! Whose *|hand shall then * sup- *|port me, And *|
w: safe- ly ride on Jor- dan’s|wave: His *|word can calm * the *|o- cean, His *|
w: ev- er- last- ing plea- sures|flow: O *|sin- ners, I * must *|leave you, And *|
w: in a mo- ment cease to|roll. Then *|we shall see * the *|Sav- ior, With *|
 [EB]2 [EB]2 [Ec][EB][EA][Ec] | [EB]6 (cd) | [Ae]3 [Ae] ([Fd][Ec]) ([DB][CA]) | [DB]2 [DF]4 B2 | %15
w: scarce- ly once a cheer- ing|ray, But *|since my Sav- * ior *|found me, A|
w: breast- plate, hel- met, and my|shield, And *|fight the hosts * of *|Sa- tan Un-|
w: bid a long, a sad fare-|well! O *|come! or you’ll * re- *|pent it, When|
w: keep my soul from sink- ing|there? From *|sink- ing down * to *|dark- ness, And|
w: lamp can cheer the gloom- y|vale: O *|may this Friend * be *|with me, When|
w: join that blessed im- mor- tal|band, No *|more to stand * be- *|side you, Till|
w: shin- ing ranks of an- gels|come, To *|ex- e- cute * His *|ven- geance, And|
 [EA]2 [CA]2 [Ec][EB][EA][EB] | [Ec]6 (cd) | [Ae]3 [Ae] ([Fd][Ec]) ([DB][CA]) | [DB]2 [DF]4 [FB]2 | %19
w: lamp has shone a- long my|way. But *|since my Sav- * ior *|found me, A|
w: til I reach the heaven- ly|field. And *|fight the hosts * of *|Sa- tan Un-|
w: you shall reach the gates of|hell. O *|come! or you’ll * re- *|pent it, When|
w: to the re- gions of des-|pair? From *|sink- ing down * to *|dark- ness, And|
w: through the gates of death I|sail! O *|may this Friend * be *|with me, When|
w: at the judg- ment bar we|stand. No *|more to stand * be- *|side you, Till|
w: take His ran- somed peo- ple|home. To *|ex- e- cute * His *|ven- geance, And|
 [EA]3 [CE] [Ec][DB][CA][DG] | [CA]6 |] %21
w: lamp has shone a- long my|way.|
w: til I reach the heaven- ly|field.|
w: you shall reach the gates of|hell.|
w: to the re- gions of des-|pair?|
w: through the gates of death I|sail!|
w: at the judg- ment bar we|stand.|
w: take His ran- somed peo- ple|home.|
V:2
 E2 | x8 | x8 | x8 | x6 A2 | x8 | x8 | x8 | x6 E2 | x4 E2 E2 | x6 E2 | x8 | x6 E2 | x8 | x6 (FE) | %15
 x8 | x6 E2 | x8 | x8 | x8 | x6 |] %21
V:3
 (A,B,) | [A,C]3 [A,C] A,2 A,2 | [D,F,]2 [D,A,]4 [D,F,]2 | [C,A,]2 [C,A,]2 [E,G,]2 [E,G,]2 | %4
 A,2 [A,C]2 !fermata![E,E]2 (A,B,) | [A,C]3 [A,C] A,2 A,2 | [D,F,]2 [D,A,]4 [D,D]2 | %7
 [E,C]2 [E,C]2 [E,E][E,D][E,C][E,B,] | [A,,C]6 (E,F,) | [E,G,]2 [E,G,]2 (A,G,) (F,G,) | %10
 A,2 [A,C]4 (E,F,) | [E,G,]2 [E,G,]2 A,[E,G,][C,A,][A,,A,] | [E,G,]6 (A,B,) | %13
 [A,C]3 [A,C] A,2 A,2 | [D,F,]2 [D,A,]4 (F,G,) | [C,A,]2 [A,,A,]2 A,[E,G,][C,A,][E,G,] | %16
 A,6 (A,B,) | [A,C]3 [A,C] A,2 A,2 | [D,F,]2 [D,A,]4 [D,D]2 | %19
 [E,C]3 [E,A,] [E,A,][E,B,][E,C][E,B,] | [A,,A,]6 |] %21
V:4
 A,2 | x4 A,2 A,2 | x8 | x8 | A,2 x2 A,2 x2 | x4 A,2 A,2 | x8 | x8 | x6 E,2 | x4 E,2 E,2 | %10
 A,2 x2 E,2 x2 | x4 A, x3 | x6 A,2 | x4 A,2 A,2 | x6 D,2 | x4 A, x3 | A,6 A,2 | x4 A,2 A,2 | x8 | %19
 x8 | x6 |] %21

